flaticon/arrows/minimize-2.svg

<svg xmlns="http://www.w3.org/2000/svg" width="32" height="32" viewBox="0 0 24 24">
    <path d="M23.882812.117188C23.726562-.0390625 23.472656-.0390625 23.316406.117188L14.398438 9.035156 14.398438 2C14.398438 1.777344 14.222656 1.601562 14 1.601562 13.777344 1.601562 13.601562 1.777344 13.601562 2L13.601562 10C13.601562 10.050781 13.609375 10.105469 13.628906 10.152344 13.671875 10.25 13.75 10.328125 13.847656 10.371094 13.894531 10.390625 13.949219 10.398438 14 10.398438L22 10.398438C22.222656 10.398438 22.398438 10.222656 22.398438 10 22.398438 9.777344 22.222656 9.601562 22 9.601562L14.964844 9.601562 23.882812.683594C24.039062.527344 24.039062.273438 23.882812.117188zM10.152344 13.628906C10.105469 13.609375 10.050781 13.601562 10 13.601562L2 13.601562C1.777344 13.601562 1.601562 13.777344 1.601562 14 1.601562 14.222656 1.777344 14.398438 2 14.398438L9.035156 14.398438.117188 23.316406C-.0390625 23.472656-.0390625 23.726562.117188 23.882812.195312 23.960938.296875 24 .398438 24 .503906 24 .605469 23.960938.683594 23.882812L9.601562 14.964844 9.601562 22C9.601562 22.222656 9.777344 22.398438 10 22.398438 10.222656 22.398438 10.398438 22.222656 10.398438 22L10.398438 14C10.398438 13.949219 10.390625 13.894531 10.371094 13.847656 10.328125 13.75 10.25 13.671875 10.152344 13.628906zM10.152344 13.628906"/>
</svg>

<svg xmlns="http://www.w3.org/2000/svg" width="32" height="32" viewBox="0 0 24 24">
    <path d="M23.883.117a.4.4 0 0 0-.567 0l-8.918 8.918V2A.395.395 0 0 0 14 1.602a.395.395 0 0 0-.398.398v8c0 .05.007.105.027.152a.427.427 0 0 0 .219.22c.047.019.101.026.152.026h8a.395.395 0 0 0 .398-.398.395.395 0 0 0-.398-.398h-7.035L23.883.684a.4.4 0 0 0 0-.567zm0 0M10.152 13.629a.405.405 0 0 0-.152-.027H2a.395.395 0 0 0-.398.398c0 .223.175.398.398.398h7.035L.117 23.316a.4.4 0 0 0 .567.567l8.918-8.918V22c0 .223.175.398.398.398a.395.395 0 0 0 .398-.398v-8a.405.405 0 0 0-.027-.152.427.427 0 0 0-.219-.22zm0 0"/>
</svg>
